src/assets/filled/Trash.svg

<svg width="24" height="24" viewBox="0 0 24 24"  xmlns="http://www.w3.org/2000/svg">
<path d="M21.0699 5.23C19.4599 5.07 17.8499 4.95 16.2299 4.86V4.85L16.0099 3.55C15.8599 2.63 15.6399 1.25 13.2999 1.25H10.6799C8.34991 1.25 8.12991 2.57 7.96991 3.54L7.75991 4.82C6.82991 4.88 5.89991 4.94 4.96991 5.03L2.92991 5.23C2.50991 5.27 2.20991 5.64 2.24991 6.05C2.28991 6.46 2.64991 6.76 3.06991 6.72L5.10991 6.52C10.3499 6 15.6299 6.2 20.9299 6.73C20.9599 6.73 20.9799 6.73 21.0099 6.73C21.3899 6.73 21.7199 6.44 21.7599 6.05C21.7899 5.64 21.4899 5.27 21.0699 5.23Z" />
<path d="M19.23 8.14C18.99 7.89 18.66 7.75 18.32 7.75H5.67999C5.33999 7.75 4.99999 7.89 4.76999 8.14C4.53999 8.39 4.40999 8.73 4.42999 9.08L5.04999 19.34C5.15999 20.86 5.29999 22.76 8.78999 22.76H15.21C18.7 22.76 18.84 20.87 18.95 19.34L19.57 9.09C19.59 8.73 19.46 8.39 19.23 8.14ZM13.66 17.75H10.33C9.91999 17.75 9.57999 17.41 9.57999 17C9.57999 16.59 9.91999 16.25 10.33 16.25H13.66C14.07 16.25 14.41 16.59 14.41 17C14.41 17.41 14.07 17.75 13.66 17.75ZM14.5 13.75H9.49999C9.08999 13.75 8.74999 13.41 8.74999 13C8.74999 12.59 9.08999 12.25 9.49999 12.25H14.5C14.91 12.25 15.25 12.59 15.25 13C15.25 13.41 14.91 13.75 14.5 13.75Z" />
</svg>

<?xml version="1.0" encoding="UTF-8"?>
<svg width="24" height="24" viewBox="0 0 24 24" xmlns="http://www.w3.org/2000/svg">
 <path d="m21.07 5.23c-1.61-0.16-3.22-0.28-4.84-0.37v-0.01l-0.22-1.3c-0.15-0.92-0.37-2.3-2.71-2.3h-2.62c-2.33 0-2.55 1.32-2.71 2.29l-0.21 1.28c-0.93 0.06-1.86 0.12-2.79 0.21l-2.04 0.2c-0.42 0.04-0.72 0.41-0.68 0.82s0.4 0.71 0.82 0.67l2.04-0.2c5.24-0.52 10.52-0.32 15.82 0.21h0.08c0.38 0 0.71-0.29 0.75-0.68 0.03-0.41-0.27-0.78-0.69-0.82z"/>
 <path d="m19.23 8.14c-0.24-0.25-0.57-0.39-0.91-0.39h-12.64c-0.34 0-0.68 0.14-0.91 0.39s-0.36 0.59-0.34 0.94l0.62 10.26c0.11 1.52 0.25 3.42 3.74 3.42h6.42c3.49 0 3.63-1.89 3.74-3.42l0.62-10.25c0.02-0.36-0.11-0.7-0.34-0.95zm-5.57 9.61h-3.33c-0.41001 0-0.75001-0.34-0.75001-0.75s0.34-0.75 0.75001-0.75h3.33c0.41 0 0.75 0.34 0.75 0.75s-0.34 0.75-0.75 0.75zm0.84-4h-5c-0.41 0-0.75-0.34-0.75-0.75s0.34-0.75 0.75-0.75h5c0.41 0 0.75 0.34 0.75 0.75s-0.34 0.75-0.75 0.75z"/>
</svg>
